packages/icons/src/components/Icon/assets/small-outline/notification.svg

<svg width="16" height="16" viewBox="0 0 16 16" fill="none" xmlns="http://www.w3.org/2000/svg">
<path fill-rule="evenodd" clip-rule="evenodd" d="M8.00188 2.5C6.11491 2.5 4.58522 4.02969 4.58522 5.91667L4.58508 6.4375C4.58508 6.43743 4.58508 6.43757 4.58508 6.4375C4.58504 7.83872 4.1727 9.14491 3.46332 10.2396C4.31643 10.493 5.19958 10.6767 6.10628 10.7842C6.72755 10.8579 7.36006 10.8958 8.00175 10.8958C8.64352 10.8958 9.27611 10.8579 9.89746 10.7842C10.8041 10.6766 11.6871 10.4929 12.5402 10.2396C11.8308 9.14485 11.4184 7.8388 11.4184 6.4375V5.9448L11.4185 5.91667C11.4185 4.02969 9.88885 2.5 8.00188 2.5ZM3.08522 5.91647C3.08532 3.20116 5.28655 1 8.00188 1C10.7173 1 12.9185 3.20127 12.9185 5.91667L12.9184 5.95082V6.4375C12.9184 7.85307 13.4522 9.1422 14.3307 10.1174C14.4972 10.3022 14.5613 10.5575 14.5017 10.799C14.4421 11.0405 14.2666 11.2368 14.0332 11.3229C13.0089 11.7011 11.9394 11.9857 10.8352 12.1664C10.8352 12.1663 10.8352 12.1665 10.8352 12.1664C10.8352 13.7312 9.56669 15 8.00188 15C6.43708 15 5.16855 13.7315 5.16855 12.1667C5.16855 12.1666 5.16855 12.1667 5.16855 12.1667C4.06424 11.9859 2.99464 11.7011 1.97025 11.3229C1.73689 11.2368 1.56143 11.0405 1.50183 10.799C1.44224 10.5575 1.50627 10.3022 1.67277 10.1174C2.55128 9.1422 3.08508 7.85307 3.08508 6.4375L3.08522 5.91647C3.08522 5.91653 3.08522 5.9164 3.08522 5.91647ZM6.68057 12.3464C6.76835 12.9978 7.32647 13.5 8.00188 13.5C8.6773 13.5 9.23542 12.9978 9.3232 12.3464C8.88688 12.3792 8.4462 12.3958 8.00175 12.3958C7.55739 12.3958 7.1168 12.3792 6.68057 12.3464Z" fill="black"/>
</svg>

<svg xmlns="http://www.w3.org/2000/svg" width="16" height="16" fill="none" viewBox="0 0 16 16">
    <path fill="#000" fill-rule="evenodd" d="M8.002 2.5a3.417 3.417 0 0 0-3.417 3.417v.52a6.97 6.97 0 0 1-1.122 3.803 15.8 15.8 0 0 0 4.539.656q.963 0 1.895-.112a16 16 0 0 0 2.643-.544 6.97 6.97 0 0 1-1.122-3.802v-.521A3.417 3.417 0 0 0 8.002 2.5M3.085 5.916a4.917 4.917 0 0 1 9.834 0v.522c0 1.415.533 2.704 1.412 3.68a.75.75 0 0 1-.298 1.205 17.3 17.3 0 0 1-3.198.843 2.834 2.834 0 0 1-5.666 0 17.3 17.3 0 0 1-3.199-.843.75.75 0 0 1-.297-1.206 5.48 5.48 0 0 0 1.412-3.68zm3.596 6.43a1.334 1.334 0 0 0 2.642 0 17.6 17.6 0 0 1-2.642 0" clip-rule="evenodd"/>
</svg>
